svg/fluentui-system-icons/ic_fluent_reading_list_add_20_filled.svg

<svg width="20" height="20" viewBox="0 0 20 20" fill="none" xmlns="http://www.w3.org/2000/svg">
<path d="M3.5 5.49738C3.5 4.94384 3.94873 4.49512 4.50226 4.49512C4.84959 4.49512 5.15611 4.67116 5.33705 4.94238C5.56693 5.28694 6.03262 5.37991 6.37718 5.15003C6.72175 4.92015 6.81472 4.45447 6.58484 4.1099C6.13751 3.4394 5.37193 2.99512 4.50226 2.99512C3.1203 2.99512 2 4.11542 2 5.49738C2 6.87934 3.1203 7.99964 4.50226 7.99964C4.51811 7.99964 4.53385 7.99915 4.54946 7.99818C4.56503 7.99914 4.58074 7.99963 4.59656 7.99963H15.2738C15.688 7.99963 16.0238 7.66385 16.0238 7.24963C16.0238 6.83542 15.688 6.49963 15.2738 6.49963H4.59656C4.58071 6.49963 4.56497 6.50013 4.54936 6.50109C4.53379 6.50013 4.51808 6.49964 4.50226 6.49964C3.94873 6.49964 3.5 6.05091 3.5 5.49738ZM9.74768 3.99963C9.33347 3.99963 8.99768 4.33542 8.99768 4.74963C8.99768 5.16385 9.33347 5.49963 9.74768 5.49963H17.2483C17.6625 5.49963 17.9983 5.16385 17.9983 4.74963C17.9983 4.33542 17.6625 3.99963 17.2483 3.99963H9.74768ZM5.75 8.99963C5.33579 8.99963 5 9.33542 5 9.74963C5 10.1638 5.33579 10.4996 5.75 10.4996H10.7251C11.7101 9.56971 13.0385 8.99963 14.5 8.99963H5.75ZM2.75 11.5007H9.88879C9.59068 11.9581 9.3588 12.4626 9.20674 13.0007H2.75C2.33579 13.0007 2 12.6649 2 12.2507C2 11.8365 2.33579 11.5007 2.75 11.5007ZM5.75 13.9996H9.02242C9.00758 14.1643 9 14.3311 9 14.4996C9 14.8411 9.03112 15.1754 9.09069 15.4996H5.75C5.33579 15.4996 5 15.1638 5 14.7496C5 14.3354 5.33579 13.9996 5.75 13.9996ZM19 14.4996C19 16.9849 16.9853 18.9996 14.5 18.9996C12.0147 18.9996 10 16.9849 10 14.4996C10 12.0144 12.0147 9.99963 14.5 9.99963C16.9853 9.99963 19 12.0144 19 14.4996ZM15 12.4996C15 12.2235 14.7761 11.9996 14.5 11.9996C14.2239 11.9996 14 12.2235 14 12.4996V13.9996H12.5C12.2239 13.9996 12 14.2235 12 14.4996C12 14.7758 12.2239 14.9996 12.5 14.9996H14V16.4996C14 16.7758 14.2239 16.9996 14.5 16.9996C14.7761 16.9996 15 16.7758 15 16.4996V14.9996H16.5C16.7761 14.9996 17 14.7758 17 14.4996C17 14.2235 16.7761 13.9996 16.5 13.9996H15V12.4996Z" fill="#212121"/>
</svg>

<svg xmlns="http://www.w3.org/2000/svg" width="20" height="20"><path d="M3.5 5.497a1.002 1.002 0 0 1 1.837-.555.75.75 0 0 0 1.248-.832A2.502 2.502 0 1 0 4.597 8h10.677a.75.75 0 0 0 0-1.5H4.597l-.048.001a.765.765 0 0 0-.047-.001A1.002 1.002 0 0 1 3.5 5.497ZM9.748 4a.75.75 0 0 0 0 1.5h7.5a.75.75 0 0 0 0-1.5h-7.5ZM5.75 9a.75.75 0 0 0 0 1.5h4.975A5.481 5.481 0 0 1 14.5 9H5.75Zm-3 2.5h7.139c-.298.458-.53.963-.682 1.5H2.75a.75.75 0 0 1 0-1.5Zm3 2.5h3.272a5.571 5.571 0 0 0 .069 1.5H5.75a.75.75 0 0 1 0-1.5Zm13.25.5a4.5 4.5 0 1 1-9 0 4.5 4.5 0 0 1 9 0Zm-4-2a.5.5 0 0 0-1 0V14h-1.5a.5.5 0 0 0 0 1H14v1.5a.5.5 0 1 0 1 0V15h1.5a.5.5 0 1 0 0-1H15v-1.5Z"/></svg>
